src/svg/uf1c0-database.svg

<!-- Generated by IcoMoon.io -->
<svg version="1.1" xmlns="http://www.w3.org/2000/svg" width="27" height="32" viewBox="0 0 27 32">
<path d="M13.714 13.714c5.375 0 10.768-0.964 13.714-3.036v3.036c0 2.518-6.143 4.571-13.714 4.571s-13.714-2.054-13.714-4.571v-3.036c2.946 2.071 8.339 3.036 13.714 3.036zM13.714 27.429c5.375 0 10.768-0.964 13.714-3.036v3.036c0 2.518-6.143 4.571-13.714 4.571s-13.714-2.054-13.714-4.571v-3.036c2.946 2.071 8.339 3.036 13.714 3.036zM13.714 20.571c5.375 0 10.768-0.964 13.714-3.036v3.036c0 2.518-6.143 4.571-13.714 4.571s-13.714-2.054-13.714-4.571v-3.036c2.946 2.071 8.339 3.036 13.714 3.036zM13.714 0c7.571 0 13.714 2.054 13.714 4.571v2.286c0 2.518-6.143 4.571-13.714 4.571s-13.714-2.054-13.714-4.571v-2.286c0-2.518 6.143-4.571 13.714-4.571z"></path>
</svg>

<svg xmlns="http://www.w3.org/2000/svg" width="27" height="32"><path d="M13.714 13.714c5.375 0 10.768-.964 13.714-3.036v3.036c0 2.518-6.143 4.571-13.714 4.571S0 16.231 0 13.714v-3.036c2.946 2.071 8.339 3.036 13.714 3.036zm0 13.715c5.375 0 10.768-.964 13.714-3.036v3.036c0 2.518-6.143 4.571-13.714 4.571S0 29.946 0 27.429v-3.036c2.946 2.071 8.339 3.036 13.714 3.036zm0-6.858c5.375 0 10.768-.964 13.714-3.036v3.036c0 2.518-6.143 4.571-13.714 4.571S0 23.088 0 20.571v-3.036c2.946 2.071 8.339 3.036 13.714 3.036zm0-20.571c7.571 0 13.714 2.054 13.714 4.571v2.286c0 2.518-6.143 4.571-13.714 4.571S0 9.374 0 6.857V4.571C0 2.053 6.143 0 13.714 0z"/></svg>
